X:1
T:Camptown Races [2]
T:Camptown Races [2]
L:1/8
M:2/4
K:A
V:1 treble 
V:1
 ef/e/ ce | fe c2 | c B2 A/B/ | c B2 B | ef/e/ ce fe c2 | Bc/d/ cB | A2 A2 :: A2 ce | a2 ab/a/ | %9
 f2 af | e2 ec/d/ | e2 ce | fe cd/c/ | Bc/d/ cB | A2 A2 :| %15

